src/img/projects/woocommerce.svg

<?xml version="1.0" encoding="UTF-8"?>
<svg width="90px" height="90px" viewBox="0 0 90 90" version="1.1" xmlns="http://www.w3.org/2000/svg" xmlns:xlink="http://www.w3.org/1999/xlink">
    <!-- Generator: Sketch 41.2 (35397) - http://www.bohemiancoding.com/sketch -->
    <title>community/card/logo/woocommerce</title>
    <desc>Created with Sketch.</desc>
    <defs></defs>
    <g id="Symbols" stroke="none" stroke-width="1" fill="none" fill-rule="evenodd">
        <g id="community/card/logo/woocommerce" fill="#FFFFFF">
            <path d="M17.1899126,27 L71.47899,27 C74.9148823,27 77.6960583,29.8490096 77.6960583,33.3687041 L77.6960583,54.597095 C77.6960583,58.1167895 74.9148823,60.9657991 71.47899,60.9657991 L52.0102367,60.9657991 L54.6825105,67.6694454 L42.9301854,60.9657991 L17.2170079,60.9657991 C13.7813762,60.9657991 11.0002001,58.1167895 11.0002001,54.597095 L11.0002001,33.3687041 C10.9728443,29.8770327 13.7537598,27 17.1899126,27 Z M14.7979709,32.8047737 C15.1775656,32.2768729 15.7468274,31.9993113 16.5060168,31.943799 C17.8889192,31.8325074 18.6752039,32.4989222 18.864871,33.94331 C19.7053463,39.7480836 20.6271075,44.6641265 21.6030593,48.6911715 L27.540577,37.1096472 C28.0830041,36.0541125 28.7609076,35.4987224 29.5742876,35.4432101 C30.7672623,35.3599416 31.4990959,36.137381 31.7974047,37.7760619 C32.4753082,41.4697662 33.3428788,44.6083473 34.3730212,47.2745399 C35.07802,40.2202052 36.2709948,35.1376255 37.9519454,31.9993113 C38.3583749,31.2216051 38.9549925,30.8327519 39.7412772,30.7769727 C40.3649901,30.7217273 40.9342519,30.9160204 41.4493231,31.3326297 C41.9643943,31.749239 42.2356078,32.2768729 42.2897984,32.9157983 C42.3168937,33.4156761 42.2356078,33.8322853 42.0188454,34.2488946 C40.9613472,36.2486725 40.0935161,39.6093029 39.3887778,44.2750065 C38.7111348,48.8021961 38.4670166,52.3296303 38.6295884,54.8570421 C38.6840395,55.5509461 38.5753978,56.1621154 38.3044448,56.6900162 C37.9787801,57.3009186 37.4910648,57.6342594 36.8673519,57.6897717 C36.162353,57.745284 35.4305195,57.4122101 34.7255206,56.66226 C32.2040947,54.0235567 30.19774,50.0797801 28.7338123,44.8306634 C26.9713152,48.3855869 25.6699593,51.0517795 24.829484,52.8292412 C23.2298193,55.9678223 21.8742728,57.5787471 20.7354887,57.6620155 C20.0033945,57.7175279 19.3799422,57.0786024 18.8377757,55.745773 C17.4551339,52.1073142 15.9638503,45.0804688 14.3644461,34.6655039 C14.2558044,33.94331 14.4183762,33.3043845 14.7979709,32.8047737 L14.7979709,32.8047737 Z M73.0622413,37.1651595 C72.0862895,35.415454 70.6491965,34.3601861 68.7243882,33.94331 C68.2090565,33.8322853 67.7213411,33.776773 67.2602,33.776773 C64.6574882,33.776773 62.5427523,35.1653816 60.8888969,37.9428658 C59.4788993,40.3034737 58.774161,42.914154 58.774161,45.7749066 C58.774161,47.9134653 59.2079463,49.7464393 60.0755169,51.2740956 C61.0514687,53.0238012 62.4885617,54.079069 64.41337,54.4956783 C64.9284412,54.6069698 65.4164171,54.6624821 65.8775582,54.6624821 C68.5073653,54.6624821 70.6221012,53.2738735 72.2488613,50.4963894 C73.6585984,48.1077584 74.3635972,45.4970781 74.3635972,42.6365924 C74.3906925,40.4702776 73.9298119,38.6647928 73.0622413,37.1651595 L73.0622413,37.1651595 Z M56.0899028,37.1651595 C55.113951,35.415454 53.6497627,34.3601861 51.7520497,33.94331 C51.2369785,33.8322853 50.7490026,33.776773 50.2878615,33.776773 C47.6851497,33.776773 45.5704138,35.1653816 43.9165584,37.9428658 C42.5068213,40.3034737 41.8018225,42.914154 41.8018225,45.7749066 C41.8018225,47.9134653 42.2356078,49.7464393 43.1031784,51.2740956 C44.0791302,53.0238012 45.5162232,54.079069 47.4410315,54.4956783 C47.9563632,54.6069698 48.4440786,54.6624821 48.9052197,54.6624821 C51.5350268,54.6624821 53.6497627,53.2738735 55.2765228,50.4963894 C56.6865204,48.1077584 57.3912587,45.4970781 57.3912587,42.6365924 C57.3912587,40.4702776 56.9574734,38.6647928 56.0899028,37.1651595 L56.0899028,37.1651595 Z M52.6467156,44.8584196 C52.2671209,46.6913936 51.5892174,48.0522461 50.5861703,48.9687331 C49.7998856,49.690927 49.0677915,49.9962448 48.389888,49.857464 C47.7393403,49.7186832 47.1971738,49.1355369 46.7902232,48.0522461 C46.4650797,47.1912714 46.3025079,46.3302967 46.3025079,45.5248343 C46.3025079,44.8306634 46.3566985,44.1362257 46.492175,43.4975671 C46.7362932,42.3587639 47.1971738,41.2477169 47.9292679,40.1924491 C48.8239338,38.8313297 49.7727903,38.2762066 50.7487421,38.4704997 C51.3995503,38.6092805 51.9419774,39.1926936 52.3484068,40.2757176 C52.6740715,41.1366923 52.8363827,41.997667 52.8363827,42.8031294 C52.8637386,43.5253233 52.7821921,44.2194941 52.6467156,44.8581527 L52.6467156,44.8584196 Z M69.6461494,44.8584196 C69.2665547,46.6913936 68.5886512,48.0522461 67.5853436,48.9687331 C66.7993194,49.690927 66.0672253,49.9962448 65.3895823,49.857464 C64.7387741,49.7186832 64.196347,49.1355369 63.7899176,48.0522461 C63.4642529,47.1912714 63.3019417,46.3302967 63.3019417,45.5248343 C63.3019417,44.8306634 63.3561323,44.1362257 63.4916088,43.4975671 C63.735727,42.3587639 64.1966076,41.2477169 64.9284412,40.1924491 C65.8233676,38.8313297 66.7722241,38.2762066 67.7481759,38.4704997 C68.3989841,38.6092805 68.9414112,39.1926936 69.3478406,40.2757176 C69.6732447,41.1366923 69.8358165,41.997667 69.8358165,42.8031294 C69.8358165,43.5253233 69.7816259,44.2194941 69.6461494,44.8581527 L69.6461494,44.8584196 Z" id="Combined-Shape"></path>
        </g>
    </g>
</svg>

<svg width="90" height="90" viewBox="0 0 90 90" xmlns="http://www.w3.org/2000/svg"><title>community/card/logo/woocommerce</title><path d="M17.19 27h54.289c3.436 0 6.217 2.849 6.217 6.369v21.228c0 3.52-2.781 6.369-6.217 6.369H52.01l2.673 6.703-11.753-6.703H17.217c-3.436 0-6.217-2.85-6.217-6.369V33.37C10.973 29.877 13.754 27 17.19 27zm-2.392 5.805c.38-.528.949-.806 1.708-.861 1.383-.111 2.17.555 2.359 2 .84 5.804 1.762 10.72 2.738 14.747l5.938-11.581c.542-1.056 1.22-1.611 2.033-1.667 1.193-.083 1.925.694 2.223 2.333.678 3.694 1.546 6.832 2.576 9.499.705-7.055 1.898-12.137 3.579-15.276.406-.777 1.003-1.166 1.79-1.222.623-.055 1.192.139 1.707.556.515.416.787.944.84 1.583.028.5-.053.916-.27 1.333-1.058 2-1.925 5.36-2.63 10.026-.678 4.527-.922 8.055-.76 10.582.055.694-.054 1.305-.325 1.833-.325.61-.813.944-1.437 1-.705.055-1.436-.278-2.141-1.028-2.522-2.638-4.528-6.582-5.992-11.831a524.873 524.873 0 0 0-3.905 7.998c-1.6 3.139-2.955 4.75-4.094 4.833-.732.056-1.355-.583-1.897-1.916-1.383-3.639-2.874-10.666-4.474-21.08-.108-.723.054-1.362.434-1.861zm58.264 4.36c-.976-1.75-2.413-2.805-4.338-3.222a6.96 6.96 0 0 0-1.464-.166c-2.603 0-4.717 1.388-6.371 4.166-1.41 2.36-2.115 4.971-2.115 7.832 0 2.138.434 3.971 1.302 5.5.975 1.749 2.413 2.804 4.337 3.22a6.94 6.94 0 0 0 1.465.167c2.63 0 4.744-1.388 6.37-4.166 1.41-2.388 2.116-4.999 2.116-7.86.027-2.166-.434-3.971-1.302-5.47zm-16.972 0c-.976-1.75-2.44-2.805-4.338-3.222a6.957 6.957 0 0 0-1.464-.166c-2.603 0-4.718 1.388-6.371 4.166-1.41 2.36-2.115 4.971-2.115 7.832 0 2.138.434 3.971 1.301 5.5.976 1.749 2.413 2.804 4.338 3.22a6.943 6.943 0 0 0 1.464.167c2.63 0 4.745-1.388 6.372-4.166 1.41-2.388 2.114-4.999 2.114-7.86 0-2.166-.434-3.971-1.301-5.47zm-3.443 7.693c-.38 1.833-1.058 3.194-2.06 4.11-.787.723-1.52 1.028-2.197.89-.65-.14-1.193-.722-1.6-1.806a7.203 7.203 0 0 1-.487-2.527c0-.694.054-1.389.19-2.027a9.09 9.09 0 0 1 1.436-3.306c.895-1.36 1.844-1.916 2.82-1.722.65.14 1.193.723 1.6 1.806.325.86.487 1.722.487 2.527a8.387 8.387 0 0 1-.19 2.055zm17 0c-.38 1.833-1.058 3.194-2.062 4.11-.786.723-1.518 1.028-2.195.89-.651-.14-1.194-.722-1.6-1.806a7.192 7.192 0 0 1-.488-2.527c0-.694.054-1.389.19-2.027a9.094 9.094 0 0 1 1.436-3.306c.895-1.36 1.844-1.916 2.82-1.722.651.14 1.193.723 1.6 1.806.325.86.488 1.722.488 2.527 0 .722-.054 1.416-.19 2.055z" fill="#FFF" fill-rule="evenodd"/></svg>
